static/logos/greenhouse-wordmark-color.svg

<svg width="100" height="23" viewBox="0 0 100 23" fill="none" xmlns="http://www.w3.org/2000/svg">
<g clip-path="url(#clip0_1_2545)">
<path d="M8.45929 8.15785C8.45929 9.13785 8.045 10.0043 7.36643 10.6821C6.61286 11.4357 5.52 11.625 5.52 12.265C5.52 13.1314 6.91429 12.8678 8.25214 14.2057C9.13786 15.0914 9.68357 16.2593 9.68357 17.6157C9.68357 20.2907 7.53571 22.42 4.84214 22.42C2.14786 22.4193 0 20.2928 0 17.6164C0 16.26 0.546429 15.0921 1.43214 14.2064C2.76929 12.8693 4.16357 13.1328 4.16357 12.2664C4.16357 11.6257 3.07071 11.4371 2.31714 10.6836C1.63857 10.005 1.22429 9.13856 1.22429 8.12142C1.22429 6.16213 2.82571 4.57928 4.785 4.57928C5.16214 4.57928 5.50143 4.63642 5.78357 4.63642C6.29286 4.63642 6.55643 4.40999 6.55643 4.05213C6.55643 3.84499 6.46214 3.58071 6.46214 3.29856C6.46214 2.65785 7.00857 2.12999 7.66786 2.12999C8.32714 2.12999 8.855 2.67642 8.855 3.33571C8.855 4.03285 8.30857 4.35356 7.89429 4.50428C7.555 4.61713 7.29071 4.76785 7.29071 5.10713C7.29071 5.74571 8.45929 6.36713 8.45929 8.15713V8.15785ZM8.08214 17.6171C8.08214 15.7528 6.70714 14.245 4.84214 14.245C2.97643 14.245 1.60143 15.7521 1.60143 17.6171C1.60143 19.4636 2.97643 20.99 4.84214 20.99C6.70643 20.99 8.08214 19.4614 8.08214 17.6171ZM6.97143 8.11999C6.97143 6.93356 6.01071 5.95356 4.84286 5.95356C3.67429 5.95356 2.71429 6.93356 2.71429 8.11999C2.71429 9.30713 3.67429 10.2871 4.84286 10.2871C6.01071 10.2871 6.97143 9.30713 6.97143 8.11999ZM15.2407 4.76642C15.8436 4.76642 16.2957 5.21856 16.2957 5.78356C16.2957 6.34856 15.8621 6.80071 15.26 6.80071C14.6379 6.80071 14.2986 6.40571 13.6771 6.40571C13.0743 6.40571 12.6029 6.83856 12.6029 7.57356V13.5078C12.6029 13.7202 12.5185 13.9238 12.3684 14.0741C12.2181 14.2242 12.0145 14.3086 11.8021 14.3086C11.5898 14.3086 11.3861 14.2242 11.2359 14.0741C11.0858 13.9238 11.0014 13.7202 11.0014 13.5078V5.51999C11.0001 5.41481 11.0196 5.31041 11.0586 5.21275C11.0977 5.11509 11.1556 5.02609 11.2291 4.95086C11.3026 4.87562 11.3903 4.81562 11.487 4.77429C11.5837 4.73296 11.6876 4.71111 11.7929 4.70999C12.6029 4.70999 12.4521 5.48213 13.2621 5.48213C14.035 5.48213 14.3171 4.76642 15.2407 4.76642ZM16.9936 9.51428C16.9936 6.66928 18.9529 4.61571 21.6471 4.61571C24.115 4.61571 26.0743 6.42428 26.0743 8.89285C26.0743 9.47642 25.6979 9.87213 25.1514 9.87213H19.0286C18.7643 9.87213 18.67 9.96642 18.67 10.1736C18.67 10.645 19.0471 11.5114 19.6129 12.0764C20.1771 12.6414 20.95 12.9807 22.0429 12.9807C22.8529 12.9807 23.5686 12.6793 24.115 12.2836C24.2843 12.1521 24.4729 12.0764 24.6614 12.0764C25.0571 12.0764 25.3771 12.4343 25.3771 12.8114C25.3771 13.0371 25.3021 13.2257 25.1136 13.395C24.3221 14.055 23.2107 14.4128 22.005 14.4128C19.085 14.4128 16.9936 12.3028 16.9936 9.51428ZM23.6629 6.80142C23.135 6.27356 22.4571 6.00999 21.6471 6.00999C20.8371 6.00999 20.0829 6.33071 19.5371 6.87642C19.1036 7.30999 18.8021 7.87499 18.8021 8.25213C18.8021 8.44071 18.915 8.51642 19.16 8.51642H24.0586C24.2843 8.51642 24.3979 8.44071 24.3979 8.25213C24.3979 7.79999 24.04 7.17785 23.6629 6.80142ZM27.695 9.51428C27.695 6.66928 29.6536 4.61571 32.3479 4.61571C34.8164 4.61571 36.7757 6.42428 36.7757 8.89285C36.7757 9.47642 36.3986 9.87213 35.8521 9.87213H29.7293C29.465 9.87213 29.3714 9.96642 29.3714 10.1736C29.3714 10.645 29.7479 11.5114 30.3136 12.0764C30.8786 12.6414 31.6507 12.9807 32.7436 12.9807C33.5536 12.9807 34.27 12.6793 34.8157 12.2836C34.9857 12.1521 35.1743 12.0764 35.3621 12.0764C35.7579 12.0764 36.0786 12.4343 36.0786 12.8114C36.0786 13.0371 36.0029 13.2257 35.8143 13.395C35.0236 14.055 33.9121 14.4128 32.7057 14.4128C29.7857 14.4128 27.695 12.3028 27.695 9.51428ZM34.3636 6.80142C33.8364 6.27356 33.1579 6.00999 32.3479 6.00999C31.5379 6.00999 30.7843 6.33071 30.2379 6.87642C29.805 7.30999 29.5029 7.87499 29.5029 8.25213C29.5029 8.44071 29.6164 8.51642 29.8614 8.51642H34.7593C34.9857 8.51642 35.0986 8.44071 35.0986 8.25213C35.0986 7.79999 34.7407 7.17785 34.3636 6.80142ZM46.2143 14.3186C46.1076 14.3194 46.0019 14.2991 45.9032 14.2586C45.8045 14.2183 45.7148 14.1586 45.6394 14.0833C45.5639 14.0079 45.5042 13.9183 45.4637 13.8196C45.4233 13.7209 45.4028 13.6152 45.4036 13.5086V8.38428C45.4036 7.04642 44.3486 6.02928 42.9921 6.02928C41.6171 6.02928 40.5621 7.06499 40.5621 8.38428V13.5086C40.5621 13.7209 40.4778 13.9246 40.3276 14.0748C40.1774 14.2249 39.9738 14.3093 39.7614 14.3093C39.5491 14.3093 39.3454 14.2249 39.1952 14.0748C39.0451 13.9246 38.9607 13.7209 38.9607 13.5086V5.50142C38.9607 5.06785 39.3186 4.70999 39.7329 4.70999C40.5243 4.70999 40.4864 5.42642 40.9014 5.42642C41.3157 5.42642 41.8807 4.61571 43.35 4.61571C45.4036 4.61571 47.005 6.32999 47.005 8.38428V13.5086C47.0063 13.6137 46.9869 13.7181 46.9479 13.8156C46.9089 13.9133 46.8509 14.0022 46.7775 14.0774C46.7041 14.1527 46.6166 14.2127 46.5199 14.2541C46.4233 14.2954 46.3194 14.3173 46.2143 14.3186ZM57.0286 14.3186C56.9219 14.3194 56.8162 14.2991 56.7175 14.2586C56.6188 14.2183 56.5291 14.1586 56.4536 14.0833C56.3782 14.0079 56.3185 13.9183 56.278 13.8196C56.2376 13.7209 56.2171 13.6152 56.2179 13.5086V8.38356C56.2179 7.04642 55.1629 6.02856 53.8064 6.02856C52.4314 6.02856 51.3764 7.06428 51.3764 8.38356V13.5086C51.3764 13.7209 51.2921 13.9246 51.1419 14.0748C50.9917 14.2249 50.7881 14.3093 50.5757 14.3093C50.3634 14.3093 50.1597 14.2249 50.0095 14.0748C49.8594 13.9246 49.775 13.7209 49.775 13.5086V0.809991C49.775 0.597629 49.8594 0.393964 50.0095 0.243801C50.1597 0.0936377 50.3634 0.00927734 50.5757 0.00927734C50.7881 0.00927734 50.9917 0.0936377 51.1419 0.243801C51.2921 0.393964 51.3764 0.597629 51.3764 0.809991V4.97428C51.3764 5.19999 51.47 5.33142 51.715 5.33142C52.1293 5.33142 52.695 4.61571 54.165 4.61571C56.2179 4.61571 57.8193 6.32999 57.8193 8.38356V13.5086C57.8206 13.6138 57.8011 13.7181 57.7621 13.8158C57.723 13.9135 57.6651 14.0025 57.5916 14.0777C57.5181 14.1529 57.4304 14.2129 57.3337 14.2543C57.2369 14.2956 57.1331 14.3174 57.0279 14.3186H57.0286ZM60.0214 9.51428C60.0214 6.78285 62.2071 4.61571 64.9571 4.61571C67.7086 4.61571 69.8936 6.78285 69.8936 9.51428C69.8936 12.2464 67.7079 14.4128 64.9579 14.4128C62.2086 14.4128 60.0221 12.2464 60.0221 9.51428H60.0214ZM68.2943 9.51428C68.2943 7.61142 66.8814 6.04785 64.9593 6.04785C63.0564 6.04785 61.6436 7.61213 61.6436 9.51428C61.6436 11.4171 63.0564 12.9807 64.9593 12.9807C66.8807 12.9807 68.2943 11.4171 68.2943 9.51428ZM72.8893 4.70999C73.3414 4.70999 73.6993 5.06713 73.6993 5.51999V10.6443C73.6993 11.9821 74.7543 12.9993 76.1114 12.9993C77.4864 12.9993 78.5414 11.9636 78.5414 10.6443V5.51999C78.5414 5.30763 78.6257 5.10396 78.7757 4.9538C78.9264 4.80364 79.13 4.71928 79.3421 4.71928C79.5543 4.71928 79.7579 4.80364 79.9086 4.9538C80.0586 5.10396 80.1429 5.30763 80.1429 5.51999V13.5271C80.1429 13.96 79.785 14.3178 79.3707 14.3178C78.5793 14.3178 78.6171 13.6021 78.2021 13.6021C77.7879 13.6021 77.2229 14.4121 75.7529 14.4121C73.6993 14.4121 72.0986 12.6978 72.0986 10.6443V5.51999C72.1 5.06785 72.4564 4.70999 72.8893 4.70999ZM82.9871 13.7157C82.6293 13.4893 82.3843 13.2636 82.3843 12.83C82.3843 12.4157 82.7043 12.0957 83.1 12.0957C83.5714 12.0957 83.7786 12.3778 84.1743 12.585C84.6636 12.8678 85.2293 13.0186 85.9264 13.0186C87.2071 13.0186 87.8479 12.4343 87.8479 11.7186C87.8479 10.7014 86.9057 10.5128 85.625 10.1736C84.0421 9.75928 82.5164 9.28785 82.5164 7.46071C82.5164 5.84071 83.7593 4.61571 85.9636 4.61571C86.8307 4.61571 87.6407 4.84213 88.2814 5.23713C88.5071 5.36928 88.7336 5.65213 88.7336 5.97285C88.7336 6.38713 88.3943 6.74428 87.9607 6.74428C87.6779 6.74428 87.4521 6.55642 87.1693 6.36785C86.8871 6.17999 86.4721 6.01071 85.9071 6.01071C84.645 6.01071 84.0986 6.55642 84.0986 7.29142C84.0986 8.25213 85.0221 8.47785 86.3407 8.79856C87.8857 9.17499 89.4114 9.66499 89.4114 11.53C89.4114 13.1507 88.2057 14.4128 85.8886 14.4128C84.7579 14.4128 83.7407 14.1864 82.9871 13.7157ZM90.9193 9.51428C90.9193 6.66928 92.8786 4.61571 95.5729 4.61571C98.0407 4.61571 100 6.42428 100 8.89285C100 9.47642 99.6236 9.87213 99.0771 9.87213H92.9543C92.69 9.87213 92.5964 9.96642 92.5964 10.1736C92.5964 10.645 92.9729 11.5114 93.5379 12.0764C94.1036 12.6414 94.8757 12.9807 95.9686 12.9807C96.7786 12.9807 97.4943 12.6793 98.0407 12.2836C98.2107 12.1521 98.3986 12.0764 98.5871 12.0764C98.9829 12.0764 99.3029 12.4343 99.3029 12.8114C99.3029 13.0371 99.2279 13.2257 99.0393 13.395C98.2479 14.055 97.1364 14.4128 95.9307 14.4128C93.0121 14.4128 90.9193 12.3028 90.9193 9.51428ZM97.5907 6.80142C97.0629 6.27356 96.385 6.00999 95.575 6.00999C94.7643 6.00999 94.0107 6.33071 93.4643 6.87642C93.0314 7.30999 92.73 7.87499 92.73 8.25213C92.73 8.44071 92.8429 8.51642 93.0879 8.51642H97.9864C98.2121 8.51642 98.325 8.44071 98.325 8.25213C98.325 7.79999 97.9671 7.17785 97.5907 6.80142Z" fill="#008561"/>
</g>
<defs>
<clipPath id="clip0_1_2545">
<rect width="100" height="22.8571" fill="white"/>
</clipPath>
</defs>
</svg>

<svg xmlns="http://www.w3.org/2000/svg" width="278.261" height="64" fill="none" viewBox="0 0 100 23"><g clip-path="url(#a)"><path fill="#008561" d="M8.46 8.158c0 .98-.415 1.846-1.094 2.524-.753.754-1.846.943-1.846 1.583 0 .866 1.394.603 2.732 1.94.886.886 1.432 2.054 1.432 3.41 0 2.676-2.148 4.805-4.842 4.805C2.148 22.42 0 20.293 0 17.616c0-1.356.546-2.524 1.432-3.41 1.337-1.337 2.732-1.073 2.732-1.94 0-.64-1.093-.829-1.847-1.582-.678-.679-1.093-1.545-1.093-2.563 0-1.959 1.602-3.542 3.561-3.542.377 0 .716.057.999.057.509 0 .772-.226.772-.584 0-.207-.094-.471-.094-.753 0-.641.547-1.169 1.206-1.169.66 0 1.187.546 1.187 1.206 0 .697-.546 1.018-.96 1.168-.34.113-.604.264-.604.603 0 .639 1.168 1.26 1.168 3.05Zm-.378 9.46c0-1.865-1.375-3.373-3.24-3.373-1.866 0-3.24 1.507-3.24 3.372 0 1.847 1.374 3.373 3.24 3.373 1.864 0 3.24-1.529 3.24-3.373ZM6.972 8.12c0-1.186-.961-2.166-2.13-2.166-1.168 0-2.128.98-2.128 2.166 0 1.187.96 2.167 2.129 2.167 1.168 0 2.128-.98 2.128-2.167Zm8.269-3.354c.603 0 1.055.453 1.055 1.018S15.862 6.8 15.26 6.8c-.622 0-.961-.395-1.583-.395-.603 0-1.074.433-1.074 1.168v5.934a.801.801 0 0 1-1.602 0V5.52a.802.802 0 0 1 .792-.81c.81 0 .66.772 1.47.772.772 0 1.054-.716 1.978-.716Zm1.753 4.748c0-2.845 1.959-4.898 4.653-4.898 2.468 0 4.427 1.808 4.427 4.277 0 .583-.376.98-.923.98H19.03c-.265 0-.359.093-.359.3 0 .472.377 1.338.943 1.903.564.565 1.337.905 2.43.905.81 0 1.526-.302 2.072-.697a.9.9 0 0 1 .546-.208c.396 0 .716.358.716.735a.737.737 0 0 1-.263.584c-.792.66-1.903 1.018-3.109 1.018-2.92 0-5.011-2.11-5.011-4.899Zm6.669-2.713c-.528-.527-1.206-.791-2.016-.791s-1.564.32-2.11.866c-.433.434-.735.999-.735 1.376 0 .189.113.264.358.264h4.899c.225 0 .339-.075.339-.264 0-.452-.358-1.074-.735-1.45Zm4.032 2.713c0-2.845 1.959-4.898 4.653-4.898 2.468 0 4.428 1.808 4.428 4.277 0 .583-.377.98-.924.98H29.73c-.264 0-.358.093-.358.3 0 .472.377 1.338.943 1.903.565.565 1.337.905 2.43.905.81 0 1.526-.302 2.072-.697a.904.904 0 0 1 .546-.208c.396 0 .717.358.717.735a.737.737 0 0 1-.265.584c-.79.66-1.902 1.018-3.108 1.018-2.92 0-5.011-2.11-5.011-4.899Zm6.669-2.713c-.528-.527-1.206-.791-2.016-.791s-1.564.32-2.11.866c-.433.434-.735.999-.735 1.376 0 .189.113.264.358.264h4.898c.227 0 .34-.075.34-.264 0-.452-.358-1.074-.735-1.45Zm11.85 7.518a.803.803 0 0 1-.81-.81V8.384c0-1.338-1.055-2.355-2.412-2.355-1.375 0-2.43 1.036-2.43 2.355v5.125a.8.8 0 1 1-1.601 0V5.5c0-.433.358-.791.772-.791.791 0 .753.716 1.168.716.415 0 .98-.81 2.449-.81 2.054 0 3.655 1.714 3.655 3.768v5.125a.8.8 0 0 1-.79.81Zm10.815 0a.803.803 0 0 1-.811-.81V8.384c0-1.338-1.055-2.355-2.412-2.355-1.375 0-2.43 1.035-2.43 2.355v5.125a.8.8 0 1 1-1.601 0V.81a.801.801 0 0 1 1.601 0v4.164c0 .226.094.357.339.357.414 0 .98-.715 2.45-.715 2.053 0 3.654 1.714 3.654 3.768v5.125a.802.802 0 0 1-.791.81Zm2.992-4.805c0-2.731 2.186-4.898 4.936-4.898 2.752 0 4.937 2.167 4.937 4.898 0 2.732-2.186 4.899-4.936 4.899s-4.936-2.167-4.936-4.899Zm8.273 0c0-1.903-1.413-3.466-3.335-3.466-1.903 0-3.315 1.564-3.315 3.466 0 1.903 1.412 3.467 3.315 3.467 1.922 0 3.335-1.564 3.335-3.467ZM72.89 4.71c.452 0 .81.357.81.81v5.124c0 1.338 1.055 2.355 2.412 2.355 1.375 0 2.43-1.035 2.43-2.355V5.52a.801.801 0 1 1 1.602 0v8.007c0 .433-.358.79-.772.79-.792 0-.754-.715-1.169-.715-.414 0-.98.81-2.45.81-2.053 0-3.653-1.714-3.653-3.768V5.52a.8.8 0 0 1 .79-.81Zm10.098 9.006c-.358-.227-.603-.452-.603-.886a.72.72 0 0 1 .716-.734c.471 0 .679.282 1.074.489.49.283 1.055.434 1.752.434 1.281 0 1.922-.585 1.922-1.3 0-1.018-.942-1.206-2.223-1.545-1.583-.415-3.109-.886-3.109-2.713 0-1.62 1.243-2.845 3.448-2.845.867 0 1.677.226 2.317.621.226.132.453.415.453.736 0 .414-.34.771-.773.771-.283 0-.509-.188-.792-.376-.282-.188-.697-.357-1.262-.357-1.262 0-1.808.545-1.808 1.28 0 .961.923 1.187 2.242 1.508 1.545.376 3.07.866 3.07 2.731 0 1.62-1.205 2.883-3.522 2.883-1.131 0-2.148-.227-2.902-.697Zm7.932-4.202c0-2.845 1.96-4.898 4.654-4.898 2.468 0 4.427 1.808 4.427 4.277 0 .583-.376.98-.923.98h-6.123c-.264 0-.358.093-.358.3 0 .472.377 1.338.942 1.903.566.565 1.338.905 2.43.905.81 0 1.526-.302 2.073-.697a.902.902 0 0 1 .546-.208c.396 0 .716.358.716.735a.737.737 0 0 1-.264.584c-.791.66-1.903 1.018-3.108 1.018-2.919 0-5.012-2.11-5.012-4.899Zm6.672-2.713c-.528-.527-1.206-.791-2.016-.791s-1.564.32-2.11.866c-.434.434-.735.999-.735 1.376 0 .189.113.264.358.264h4.898c.226 0 .339-.075.339-.264 0-.452-.358-1.074-.734-1.45Z"/></g><defs><clipPath id="a"><path fill="#fff" d="M0 0h100v22.857H0z"/></clipPath></defs></svg>
